X: 0042
T: 404 Polska efter Tommos Anders i Evertsberg
O: efter Isak Anders Persson
%R: polska
B: Paul B\"ackstr\"om's "L\aatar fr\aan Dalarna" collection" 1974
Z: 2022 John Chambers <jc:trillian.mit.edu>
M: 3/4
L: 1/8
Q: 1/4=138
N: S.L.
K: A
% - - - - - - - - - -
|:\
ve2 a>(g b)f | f2 (e/f/e/)d/ cd | ea a>g bf |1 {g}f{gf}e [e4e4] :|2 {g}f{gf}e [e3e3] (ve ||
|:\
e)a af d2 | d>f f{gf}(e c2) | (c<e) e>(d B)z/(c/ | B2) (A/B/c/)d/ e2 |
ea af d2 | d>f f{gf}(e c2) | c<e e>(d B)z/G |1 BA [A3A3] (e :|2 BA [A4A4] |]
% - - - - - - - - - -
%%text Jmf 35 (=K.E.F. 17), 1050, S.L. 573

